X:1
T:Title
%%score { ( 1 5 ) | ( 2 3 4 ) }
L:1/8
M:4/4
K:C
V:1 treble nm="Grand Piano"
V:5 treble 
V:2 bass 
V:3 bass 
V:4 bass 
V:1
 z4 z2[Q:1/4=100] (3G[^FA][=FB] | [CEc]2 [CGB]2 [CFA]2 [E,G,CE]2 | %2
 [B,DG]2 [B,DF]2 [B,D]2 (3[G,B,FG]AB | d2 [DFB]2 [CFA]2 [B,FG]2 | %4
 [CEc]2 [E,G,CE]2 [CEG]2 (3G[^FA][=FB] | [Ec]2 [CGB]2 [FA]2 [CE]2 | [B,G]2 [B,DF]2 [B,D]2 [B,FG]2 | %7
 z [^Fd]3 z4 |[M:3/4] [G,B,FG]6[K:bass] |[M:1/4][K:treble] (3GAB | %10
[M:4/4] [CEc]2 [Ec]2- [CEc]2 (3cAc | z2 [Ae]4 z2 | [D^Fc]2 [FA]2 [Fc]2 [FA]2 | %13
 [DGB]6[K:bass][K:treble] z2 | [Ec]2 z2[K:bass] [C,G,]2[K:treble] (3[Ec]de | %15
 [Af]2 [FA]2- [F,CFA]2 [Ec][^Fd] | [Ge]2 [CEG]2 [B,Fd]3 [B,Ge] |[M:9/8] [Ec]8- [Ec] |] %18
V:2
 z4 z2 (3G,G,G, | C,2 [C,E,G,]2 C,2 C,2 | G,,2 [G,,B,,D,G,]2 [G,,G,]2 (3z[K:treble] [G,CF][G,DF] | %3
 [G,,G,B,F]2 [D,F,G,B,]2 [G,,G,]2 [D,F,G,]2 | C,2 C,2 C,2 (3G,G,G, | %5
 [C,G,]2 [C,E,G,]2 [C,C]2 [C,E,G,]2 | [G,,G,]2 [B,,D,F,G,]2 [G,,G,]2 [B,,D,F,G,]2 | %7
 [D,A,] A,3 [A,,D,C^F]2 [D,C]2 |[M:3/4] G,,2 F,,2 E,,2 |[M:1/4] (3z[K:treble] ^F=F | %10
[M:4/4][K:bass] z4 z2 [CE]2 | [A,,A,CA]2 [C,A,C]2 E,2 z A, | [A,,D,]2 [D,C]2 [A,,D,A,]2 [D,D]2 | %13
 G,6[K:treble] (3z FF | [C,G,]2 [G,,C,G,]2 z2 (3z[K:treble] FG | [F,C]2 [A,,F,]2 z2 [A,C][^G,C] | %16
 [C,G,C]2 [G,,G,]2 [G,,G,]3 [G,,G,] |[M:9/8] [C,C]8- [C,C] |] %18
V:3
 x8 | x8 | z4 z2 D,2[K:treble] | x8 | x8 | x8 | x8 | z D, z2 z4 |[M:3/4] x6 | %9
[M:1/4] D,2[K:treble] |[M:4/4][K:bass] z4 z2 E,2 | z4 z2 D,2 | x8 | G,,2 z2 z2[K:treble] G,2 | %14
 z4 z2 C,2[K:treble] | z4 z2 D,2 | x8 |[M:9/8] x9 |] %18
V:4
 x8 | x8 | z4 z2 B,,2[K:treble] | x8 | x8 | x8 | x8 | A,,2 z2 z4 |[M:3/4] x6 | %9
[M:1/4] D,,2[K:treble] |[M:4/4][K:bass] C,2 [G,,C,]2 C,2 (3:2:2z2 A | x8 | x8 | x6[K:treble] x2 | %14
 z4 z2 G,,2[K:treble] | x8 | x8 |[M:9/8] x9 |] %18
V:5
 x8 | x8 | x8 | x8 | x8 | x8 | x8 | .[^Fd]2 D,2 e2 [Fd]2 |[M:3/4] z2[K:bass] F,2 E,2 | %9
[M:1/4][K:treble] x2 |[M:4/4] z2 C2 z4 | e2 z2 [A,C]2 [B,DFG][CFA] | x8 | %13
 z2[K:bass] B,,2 D,2[K:treble] (3GAB | z2 [Ec]4[K:bass][K:treble] C2 | z2 C2 z4 | x8 |[M:9/8] x9 |] %18

